Newaita-dark/apps/32/gnome-2048.svg

<svg height="32" viewBox="0 0 32 32" width="32" xmlns="http://www.w3.org/2000/svg" xmlns:xlink="http://www.w3.org/1999/xlink"><linearGradient id="a" gradientUnits="userSpaceOnUse" x1="15.87652" x2="15.87652" y1="27.470419" y2="28.79346300003"><stop offset="0" stop-opacity=".27451"/><stop offset="1" stop-opacity="0"/></linearGradient><linearGradient id="b"><stop offset="0" stop-opacity=".313726"/><stop offset=".222222" stop-opacity=".27451"/><stop offset="1" stop-opacity="0"/></linearGradient><radialGradient id="c" cx="450.908936" cy="189.579361" gradientTransform="matrix(.00000017 -.0781325 -.140638 -.0000001 51.469126 63.031816)" gradientUnits="userSpaceOnUse" r="21.166656" xlink:href="#b"/><radialGradient id="d" cx="450.908936" cy="189.579361" gradientTransform="matrix(-.00000017 .0781325 .140638 .0000001 -19.716097 -8.090996)" gradientUnits="userSpaceOnUse" r="21.166656" xlink:href="#b"/><radialGradient id="e" cx="450.908936" cy="189.579361" gradientTransform="matrix(-.00000017 -.0781325 .140638 -.0000001 -19.716097 63.031816)" gradientUnits="userSpaceOnUse" r="21.166656" xlink:href="#b"/><radialGradient id="f" cx="450.908936" cy="189.579361" gradientTransform="matrix(.00000017 .0781325 -.140638 .0000001 51.469124 -8.090996)" gradientUnits="userSpaceOnUse" r="21.166656" xlink:href="#b"/><linearGradient id="g"><stop offset="0" stop-color="#e0e0e0"/><stop offset="1" stop-color="#eee"/></linearGradient><linearGradient id="h" gradientUnits="userSpaceOnUse" x1="7.938262" x2="7.938262" xlink:href="#g" y1="11.495887125" y2="3.55762550003"/><linearGradient id="i" gradientUnits="userSpaceOnUse" x1="23.814786" x2="23.814786" y1="11.495887125" y2="3.55762550003"><stop offset="0" stop-color="#9ccc65"/><stop offset="1" stop-color="#aed581"/></linearGradient><linearGradient id="j" gradientUnits="userSpaceOnUse" x1="7.938262" x2="7.938262" xlink:href="#g" y1="27.37241150003" y2="19.43414899998"/><linearGradient id="k" gradientUnits="userSpaceOnUse" x1="7.938262" x2="7.938262" xlink:href="#g" y1="19.43414999998" y2="11.495888125"/><linearGradient id="l" gradientUnits="userSpaceOnUse" x1="23.814786" x2="23.814786" y1="27.37241150003" y2="19.43414899998"><stop offset="0" stop-color="#ff7043"/><stop offset="1" stop-color="#ff8a65"/></linearGradient><linearGradient id="m" gradientUnits="userSpaceOnUse" x1="23.814786" x2="23.814786" y1="19.43414999998" y2="11.495888125"><stop offset="0" stop-color="#29b6f6"/><stop offset="1" stop-color="#4fc3f7"/></linearGradient><linearGradient id="n" gradientUnits="userSpaceOnUse" x1="15.876524" x2="15.876524" y1="19.43414999998" y2="11.495888125"><stop offset="0" stop-color="#ffa726"/><stop offset="1" stop-color="#ffb74d"/></linearGradient><linearGradient id="o" gradientUnits="userSpaceOnUse" x1="15.876524" x2="15.876524" y1="27.37241250003" y2="19.43414999998"><stop offset="0" stop-color="#ef5350"/><stop offset="1" stop-color="#e57373"/></linearGradient><linearGradient id="p" gradientUnits="userSpaceOnUse" x1="15.876524" x2="15.876524" xlink:href="#g" y1="11.495888125" y2="3.55762650003"/><path d="m6.613281 27.421875h18.523438v1.421875h-18.523438zm0 0" fill="url(#a)"/><path d="m25.136719 27.46875h2.648437v-1.320312h-2.648437zm0 0" fill="url(#c)"/><path d="m6.613281 27.46875h-2.644531v1.324219h2.644531zm0 0" fill="url(#d)"/><path d="m6.613281 27.46875h-2.644531v-1.320312h2.644531zm0 0" fill="url(#e)"/><path d="m25.136719 27.46875h2.648437v1.324219h-2.648437zm0 0" fill="url(#f)"/><path d="m5.292969 3.558594c-.734375 0-1.324219.589844-1.324219 1.320312v6.617188h7.9375v-7.9375zm0 0" fill="url(#h)"/><path d="m19.84375 3.558594v7.9375h7.941406v-6.617188c0-.730468-.589844-1.320312-1.324218-1.320312zm0 0" fill="url(#i)"/><path d="m3.96875 19.433594v6.617187c0 .730469.589844 1.320313 1.324219 1.320313h6.613281v-7.9375zm0 0" fill="url(#j)"/><path d="m3.96875 11.496094h7.9375v7.9375h-7.9375zm0 0" fill="url(#k)"/><path d="m19.84375 19.433594v7.9375h6.617188c.734374 0 1.324218-.589844 1.324218-1.320313v-6.617187zm0 0" fill="url(#l)"/><path d="m19.84375 11.496094h7.941406v7.9375h-7.941406zm0 0" fill="url(#m)"/><path d="m11.90625 11.496094h7.9375v7.9375h-7.9375zm0 0" fill="url(#n)"/><path d="m11.90625 19.433594h7.9375v7.9375h-7.9375zm0 0" fill="url(#o)"/><path d="m11.90625 3.558594h7.9375v7.9375h-7.9375zm0 0" fill="url(#p)"/><path d="m5.292969 3.558594c-.734375 0-1.324219.589844-1.324219 1.320312v.183594c0-.734375.589844-1.324219 1.324219-1.324219h21.167969c.734374 0 1.324218.589844 1.324218 1.324219v-.183594c0-.730468-.589844-1.320312-1.324218-1.320312zm0 0" fill="#fff" fill-opacity=".784314"/><path d="m5.292969 27.386719c-.734375 0-1.324219-.589844-1.324219-1.324219v-.179688c0 .734376.589844 1.324219 1.324219 1.324219h21.167969c.734374 0 1.324218-.589843 1.324218-1.324219v.179688c0 .734375-.589844 1.324219-1.324218 1.324219zm0 0" fill-opacity=".235294"/><g fill="#fff"><path d="m3.96875 11.496094v.332031h7.9375v-.332031zm0 0"/><path d="m5.292969 3.558594c-.734375 0-1.324219.589844-1.324219 1.320312v.332032c0-.734376.589844-1.324219 1.324219-1.324219h6.613281v-.328125zm0 0"/><path d="m19.84375 3.558594v.328125h6.617188c.734374 0 1.324218.589843 1.324218 1.324219v-.332032c0-.730468-.589844-1.320312-1.324218-1.320312zm0 0" fill-opacity=".588235"/><path d="m3.96875 19.433594v.332031h7.9375v-.332031zm0 0" fill-opacity=".980645"/><path d="m19.84375 19.433594v.332031h7.941406v-.332031zm0 0" fill-opacity=".392157"/><path d="m19.84375 11.496094v.332031h7.941406v-.332031zm0 0" fill-opacity=".392157"/><path d="m11.90625 11.496094v.332031h7.9375v-.332031zm0 0" fill-opacity=".784314"/><path d="m11.90625 19.433594v.332031h7.9375v-.332031zm0 0" fill-opacity=".392157"/><path d="m11.90625 3.558594v.328125h7.9375v-.328125zm0 0"/></g><path d="m3.96875 19.101562v.332032h7.9375v-.332032zm0 0" fill-opacity=".235294"/><path d="m3.96875 11.164062v.332032h7.9375v-.332032zm0 0" fill-opacity=".235294"/><path d="m19.84375 11.164062v.332032h7.941406v-.332032zm0 0" fill-opacity=".235294"/><path d="m3.96875 25.71875v.332031c0 .730469.589844 1.320313 1.324219 1.320313h6.613281v-.328125h-6.613281c-.734375 0-1.324219-.589844-1.324219-1.324219zm0 0" fill-opacity=".235294"/><path d="m27.785156 25.71875c0 .734375-.589844 1.324219-1.324218 1.324219h-6.617188v.328125h6.617188c.734374 0 1.324218-.589844 1.324218-1.320313zm0 0" fill-opacity=".235294"/><path d="m19.84375 19.101562v.332032h7.941406v-.332032zm0 0" fill-opacity=".235294"/><path d="m11.90625 19.101562v.332032h7.9375v-.332032zm0 0" fill-opacity=".235294"/><path d="m11.90625 27.042969v.328125h7.9375v-.328125zm0 0" fill-opacity=".235294"/><path d="m11.90625 11.164062v.332032h7.9375v-.332032zm0 0" fill-opacity=".235294"/><path d="m5.292969 3.464844c-.785157 0-1.417969.632812-1.417969 1.414062v21.171875c0 .78125.632812 1.414063 1.417969 1.414063h21.167969c.785156 0 1.417968-.632813 1.417968-1.414063v-21.171875c0-.78125-.632812-1.414062-1.417968-1.414062zm6.707031.1875h7.75v7.75h-7.75zm-6.707031 0h6.519531v7.75h-7.75v-6.523438c0-.679687.546875-1.226562 1.230469-1.226562zm14.644531 0h6.523438c.683593 0 1.230468.546875 1.230468 1.226562v6.523438h-7.753906zm-7.9375 7.9375h7.75v7.75h-7.75zm-7.9375 0h7.75v7.75h-7.75zm15.875 0h7.753906v7.75h-7.753906zm-7.9375 7.9375h7.75v7.75h-7.75zm7.9375 0h7.753906v6.523437c0 .679688-.546875 1.226563-1.230468 1.226563h-6.523438zm-15.875 0h7.75v7.75h-6.519531c-.683594 0-1.230469-.546875-1.230469-1.226563zm0 0" fill="#212121"/></svg>

<?xml version="1.0" encoding="UTF-8"?>
<svg xmlns="http://www.w3.org/2000/svg" xmlns:xlink="http://www.w3.org/1999/xlink" width="32px" height="32px" viewBox="0 0 32 32" version="1.1">
<defs>
<linearGradient id="linear0" gradientUnits="userSpaceOnUse" x1="254" y1="233.5" x2="254" y2="254.666672" gradientTransform="matrix(0.062506,0,0,0.062506,-0.00000381506,12.875268)">
<stop offset="0" style="stop-color:rgb(0%,0%,0%);stop-opacity:0.27451;"/>
<stop offset="1" style="stop-color:rgb(0%,0%,0%);stop-opacity:0;"/>
</linearGradient>
<radialGradient id="radial0" gradientUnits="userSpaceOnUse" cx="450.908936" cy="189.579361" fx="450.908936" fy="189.579361" r="21.166656" gradientTransform="matrix(0.00000017417,-0.0781325,-0.140638,-0.000000101539,51.469126,63.031816)">
<stop offset="0" style="stop-color:rgb(0%,0%,0%);stop-opacity:0.313726;"/>
<stop offset="0.222222" style="stop-color:rgb(0%,0%,0%);stop-opacity:0.27451;"/>
<stop offset="1" style="stop-color:rgb(0%,0%,0%);stop-opacity:0;"/>
</radialGradient>
<radialGradient id="radial1" gradientUnits="userSpaceOnUse" cx="450.908936" cy="189.579361" fx="450.908936" fy="189.579361" r="21.166656" gradientTransform="matrix(-0.00000017417,0.0781325,0.140638,0.000000101539,-19.716097,-8.090996)">
<stop offset="0" style="stop-color:rgb(0%,0%,0%);stop-opacity:0.313726;"/>
<stop offset="0.222222" style="stop-color:rgb(0%,0%,0%);stop-opacity:0.27451;"/>
<stop offset="1" style="stop-color:rgb(0%,0%,0%);stop-opacity:0;"/>
</radialGradient>
<radialGradient id="radial2" gradientUnits="userSpaceOnUse" cx="450.908936" cy="189.579361" fx="450.908936" fy="189.579361" r="21.166656" gradientTransform="matrix(-0.00000017417,-0.0781325,0.140638,-0.000000101539,-19.716097,63.031816)">
<stop offset="0" style="stop-color:rgb(0%,0%,0%);stop-opacity:0.313726;"/>
<stop offset="0.222222" style="stop-color:rgb(0%,0%,0%);stop-opacity:0.27451;"/>
<stop offset="1" style="stop-color:rgb(0%,0%,0%);stop-opacity:0;"/>
</radialGradient>
<radialGradient id="radial3" gradientUnits="userSpaceOnUse" cx="450.908936" cy="189.579361" fx="450.908936" fy="189.579361" r="21.166656" gradientTransform="matrix(0.00000017417,0.0781325,-0.140638,0.000000101539,51.469124,-8.090996)">
<stop offset="0" style="stop-color:rgb(0%,0%,0%);stop-opacity:0.313726;"/>
<stop offset="0.222222" style="stop-color:rgb(0%,0%,0%);stop-opacity:0.27451;"/>
<stop offset="1" style="stop-color:rgb(0%,0%,0%);stop-opacity:0;"/>
</radialGradient>
<linearGradient id="linear1" gradientUnits="userSpaceOnUse" x1="127" y1="-31.083334" x2="127" y2="-158.083328" gradientTransform="matrix(0.062506,0,0,0.062506,0,13.438782)">
<stop offset="0" style="stop-color:rgb(87.843138%,87.843138%,87.843138%);stop-opacity:1;"/>
<stop offset="1" style="stop-color:rgb(93.333334%,93.333334%,93.333334%);stop-opacity:1;"/>
</linearGradient>
<linearGradient id="linear2" gradientUnits="userSpaceOnUse" x1="381" y1="-31.083334" x2="381" y2="-158.083328" gradientTransform="matrix(0.062506,0,0,0.062506,0,13.438782)">
<stop offset="0" style="stop-color:rgb(61.176473%,80.000001%,39.607844%);stop-opacity:1;"/>
<stop offset="1" style="stop-color:rgb(68.235296%,83.529413%,50.588238%);stop-opacity:1;"/>
</linearGradient>
<linearGradient id="linear3" gradientUnits="userSpaceOnUse" x1="127" y1="222.916672" x2="127" y2="95.916664" gradientTransform="matrix(0.062506,0,0,0.062506,0,13.438782)">
<stop offset="0" style="stop-color:rgb(87.843138%,87.843138%,87.843138%);stop-opacity:1;"/>
<stop offset="1" style="stop-color:rgb(93.333334%,93.333334%,93.333334%);stop-opacity:1;"/>
</linearGradient>
<linearGradient id="linear4" gradientUnits="userSpaceOnUse" x1="127" y1="95.916664" x2="127" y2="-31.083334" gradientTransform="matrix(0.062506,0,0,0.062506,0,13.438783)">
<stop offset="0" style="stop-color:rgb(87.843138%,87.843138%,87.843138%);stop-opacity:1;"/>
<stop offset="1" style="stop-color:rgb(93.333334%,93.333334%,93.333334%);stop-opacity:1;"/>
</linearGradient>
<linearGradient id="linear5" gradientUnits="userSpaceOnUse" x1="381" y1="222.916672" x2="381" y2="95.916664" gradientTransform="matrix(0.062506,0,0,0.062506,0,13.438782)">
<stop offset="0" style="stop-color:rgb(100%,43.921569%,26.274511%);stop-opacity:1;"/>
<stop offset="1" style="stop-color:rgb(100%,54.11765%,39.607844%);stop-opacity:1;"/>
</linearGradient>
<linearGradient id="linear6" gradientUnits="userSpaceOnUse" x1="381" y1="95.916664" x2="381" y2="-31.083334" gradientTransform="matrix(0.062506,0,0,0.062506,0,13.438783)">
<stop offset="0" style="stop-color:rgb(16.078432%,71.372551%,96.470588%);stop-opacity:1;"/>
<stop offset="1" style="stop-color:rgb(30.980393%,76.47059%,96.862745%);stop-opacity:1;"/>
</linearGradient>
<linearGradient id="linear7" gradientUnits="userSpaceOnUse" x1="254" y1="95.916664" x2="254" y2="-31.083334" gradientTransform="matrix(0.062506,0,0,0.062506,0,13.438783)">
<stop offset="0" style="stop-color:rgb(100%,65.490198%,14.901961%);stop-opacity:1;"/>
<stop offset="1" style="stop-color:rgb(100%,71.764708%,30.19608%);stop-opacity:1;"/>
</linearGradient>
<linearGradient id="linear8" gradientUnits="userSpaceOnUse" x1="254" y1="222.916672" x2="254" y2="95.916664" gradientTransform="matrix(0.062506,0,0,0.062506,0,13.438783)">
<stop offset="0" style="stop-color:rgb(93.725491%,32.549021%,31.37255%);stop-opacity:1;"/>
<stop offset="1" style="stop-color:rgb(89.803922%,45.09804%,45.09804%);stop-opacity:1;"/>
</linearGradient>
<linearGradient id="linear9" gradientUnits="userSpaceOnUse" x1="254" y1="-31.083334" x2="254" y2="-158.083328" gradientTransform="matrix(0.062506,0,0,0.062506,0,13.438783)">
<stop offset="0" style="stop-color:rgb(87.843138%,87.843138%,87.843138%);stop-opacity:1;"/>
<stop offset="1" style="stop-color:rgb(93.333334%,93.333334%,93.333334%);stop-opacity:1;"/>
</linearGradient>
</defs>
<g id="surface1">
<path style=" stroke:none;fill-rule:nonzero;fill:url(#linear0);" d="M 6.613281 27.421875 L 25.136719 27.421875 L 25.136719 28.84375 L 6.613281 28.84375 Z M 6.613281 27.421875 "/>
<path style=" stroke:none;fill-rule:nonzero;fill:url(#radial0);" d="M 25.136719 27.46875 L 27.785156 27.46875 L 27.785156 26.148438 L 25.136719 26.148438 Z M 25.136719 27.46875 "/>
<path style=" stroke:none;fill-rule:nonzero;fill:url(#radial1);" d="M 6.613281 27.46875 L 3.96875 27.46875 L 3.96875 28.792969 L 6.613281 28.792969 Z M 6.613281 27.46875 "/>
<path style=" stroke:none;fill-rule:nonzero;fill:url(#radial2);" d="M 6.613281 27.46875 L 3.96875 27.46875 L 3.96875 26.148438 L 6.613281 26.148438 Z M 6.613281 27.46875 "/>
<path style=" stroke:none;fill-rule:nonzero;fill:url(#radial3);" d="M 25.136719 27.46875 L 27.785156 27.46875 L 27.785156 28.792969 L 25.136719 28.792969 Z M 25.136719 27.46875 "/>
<path style=" stroke:none;fill-rule:nonzero;fill:url(#linear1);" d="M 5.292969 3.558594 C 4.558594 3.558594 3.96875 4.148438 3.96875 4.878906 L 3.96875 11.496094 L 11.90625 11.496094 L 11.90625 3.558594 Z M 5.292969 3.558594 "/>
<path style=" stroke:none;fill-rule:nonzero;fill:url(#linear2);" d="M 19.84375 3.558594 L 19.84375 11.496094 L 27.785156 11.496094 L 27.785156 4.878906 C 27.785156 4.148438 27.195312 3.558594 26.460938 3.558594 Z M 19.84375 3.558594 "/>
<path style=" stroke:none;fill-rule:nonzero;fill:url(#linear3);" d="M 3.96875 19.433594 L 3.96875 26.050781 C 3.96875 26.78125 4.558594 27.371094 5.292969 27.371094 L 11.90625 27.371094 L 11.90625 19.433594 Z M 3.96875 19.433594 "/>
<path style=" stroke:none;fill-rule:nonzero;fill:url(#linear4);" d="M 3.96875 11.496094 L 11.90625 11.496094 L 11.90625 19.433594 L 3.96875 19.433594 Z M 3.96875 11.496094 "/>
<path style=" stroke:none;fill-rule:nonzero;fill:url(#linear5);" d="M 19.84375 19.433594 L 19.84375 27.371094 L 26.460938 27.371094 C 27.195312 27.371094 27.785156 26.78125 27.785156 26.050781 L 27.785156 19.433594 Z M 19.84375 19.433594 "/>
<path style=" stroke:none;fill-rule:nonzero;fill:url(#linear6);" d="M 19.84375 11.496094 L 27.785156 11.496094 L 27.785156 19.433594 L 19.84375 19.433594 Z M 19.84375 11.496094 "/>
<path style=" stroke:none;fill-rule:nonzero;fill:url(#linear7);" d="M 11.90625 11.496094 L 19.84375 11.496094 L 19.84375 19.433594 L 11.90625 19.433594 Z M 11.90625 11.496094 "/>
<path style=" stroke:none;fill-rule:nonzero;fill:url(#linear8);" d="M 11.90625 19.433594 L 19.84375 19.433594 L 19.84375 27.371094 L 11.90625 27.371094 Z M 11.90625 19.433594 "/>
<path style=" stroke:none;fill-rule:nonzero;fill:url(#linear9);" d="M 11.90625 3.558594 L 19.84375 3.558594 L 19.84375 11.496094 L 11.90625 11.496094 Z M 11.90625 3.558594 "/>
<path style=" stroke:none;fill-rule:nonzero;fill:rgb(100%,100%,100%);fill-opacity:0.784314;" d="M 5.292969 3.558594 C 4.558594 3.558594 3.96875 4.148438 3.96875 4.878906 L 3.96875 5.0625 C 3.96875 4.328125 4.558594 3.738281 5.292969 3.738281 L 26.460938 3.738281 C 27.195312 3.738281 27.785156 4.328125 27.785156 5.0625 L 27.785156 4.878906 C 27.785156 4.148438 27.195312 3.558594 26.460938 3.558594 Z M 5.292969 3.558594 "/>
<path style=" stroke:none;fill-rule:nonzero;fill:rgb(0%,0%,0%);fill-opacity:0.235294;" d="M 5.292969 27.386719 C 4.558594 27.386719 3.96875 26.796875 3.96875 26.0625 L 3.96875 25.882812 C 3.96875 26.617188 4.558594 27.207031 5.292969 27.207031 L 26.460938 27.207031 C 27.195312 27.207031 27.785156 26.617188 27.785156 25.882812 L 27.785156 26.0625 C 27.785156 26.796875 27.195312 27.386719 26.460938 27.386719 Z M 5.292969 27.386719 "/>
<path style=" stroke:none;fill-rule:nonzero;fill:rgb(100%,100%,100%);fill-opacity:1;" d="M 3.96875 11.496094 L 3.96875 11.828125 L 11.90625 11.828125 L 11.90625 11.496094 Z M 3.96875 11.496094 "/>
<path style=" stroke:none;fill-rule:nonzero;fill:rgb(100%,100%,100%);fill-opacity:1;" d="M 5.292969 3.558594 C 4.558594 3.558594 3.96875 4.148438 3.96875 4.878906 L 3.96875 5.210938 C 3.96875 4.476562 4.558594 3.886719 5.292969 3.886719 L 11.90625 3.886719 L 11.90625 3.558594 Z M 5.292969 3.558594 "/>
<path style=" stroke:none;fill-rule:nonzero;fill:rgb(100%,100%,100%);fill-opacity:0.588235;" d="M 19.84375 3.558594 L 19.84375 3.886719 L 26.460938 3.886719 C 27.195312 3.886719 27.785156 4.476562 27.785156 5.210938 L 27.785156 4.878906 C 27.785156 4.148438 27.195312 3.558594 26.460938 3.558594 Z M 19.84375 3.558594 "/>
<path style=" stroke:none;fill-rule:nonzero;fill:rgb(100%,100%,100%);fill-opacity:0.980645;" d="M 3.96875 19.433594 L 3.96875 19.765625 L 11.90625 19.765625 L 11.90625 19.433594 Z M 3.96875 19.433594 "/>
<path style=" stroke:none;fill-rule:nonzero;fill:rgb(100%,100%,100%);fill-opacity:0.392157;" d="M 19.84375 19.433594 L 19.84375 19.765625 L 27.785156 19.765625 L 27.785156 19.433594 Z M 19.84375 19.433594 "/>
<path style=" stroke:none;fill-rule:nonzero;fill:rgb(100%,100%,100%);fill-opacity:0.392157;" d="M 19.84375 11.496094 L 19.84375 11.828125 L 27.785156 11.828125 L 27.785156 11.496094 Z M 19.84375 11.496094 "/>
<path style=" stroke:none;fill-rule:nonzero;fill:rgb(100%,100%,100%);fill-opacity:0.784314;" d="M 11.90625 11.496094 L 11.90625 11.828125 L 19.84375 11.828125 L 19.84375 11.496094 Z M 11.90625 11.496094 "/>
<path style=" stroke:none;fill-rule:nonzero;fill:rgb(100%,100%,100%);fill-opacity:0.392157;" d="M 11.90625 19.433594 L 11.90625 19.765625 L 19.84375 19.765625 L 19.84375 19.433594 Z M 11.90625 19.433594 "/>
<path style=" stroke:none;fill-rule:nonzero;fill:rgb(100%,100%,100%);fill-opacity:1;" d="M 11.90625 3.558594 L 11.90625 3.886719 L 19.84375 3.886719 L 19.84375 3.558594 Z M 11.90625 3.558594 "/>
<path style=" stroke:none;fill-rule:nonzero;fill:rgb(0%,0%,0%);fill-opacity:0.235294;" d="M 3.96875 19.101562 L 3.96875 19.433594 L 11.90625 19.433594 L 11.90625 19.101562 Z M 3.96875 19.101562 "/>
<path style=" stroke:none;fill-rule:nonzero;fill:rgb(0%,0%,0%);fill-opacity:0.235294;" d="M 3.96875 11.164062 L 3.96875 11.496094 L 11.90625 11.496094 L 11.90625 11.164062 Z M 3.96875 11.164062 "/>
<path style=" stroke:none;fill-rule:nonzero;fill:rgb(0%,0%,0%);fill-opacity:0.235294;" d="M 19.84375 11.164062 L 19.84375 11.496094 L 27.785156 11.496094 L 27.785156 11.164062 Z M 19.84375 11.164062 "/>
<path style=" stroke:none;fill-rule:nonzero;fill:rgb(0%,0%,0%);fill-opacity:0.235294;" d="M 3.96875 25.71875 L 3.96875 26.050781 C 3.96875 26.78125 4.558594 27.371094 5.292969 27.371094 L 11.90625 27.371094 L 11.90625 27.042969 L 5.292969 27.042969 C 4.558594 27.042969 3.96875 26.453125 3.96875 25.71875 Z M 3.96875 25.71875 "/>
<path style=" stroke:none;fill-rule:nonzero;fill:rgb(0%,0%,0%);fill-opacity:0.235294;" d="M 27.785156 25.71875 C 27.785156 26.453125 27.195312 27.042969 26.460938 27.042969 L 19.84375 27.042969 L 19.84375 27.371094 L 26.460938 27.371094 C 27.195312 27.371094 27.785156 26.78125 27.785156 26.050781 Z M 27.785156 25.71875 "/>
<path style=" stroke:none;fill-rule:nonzero;fill:rgb(0%,0%,0%);fill-opacity:0.235294;" d="M 19.84375 19.101562 L 19.84375 19.433594 L 27.785156 19.433594 L 27.785156 19.101562 Z M 19.84375 19.101562 "/>
<path style=" stroke:none;fill-rule:nonzero;fill:rgb(0%,0%,0%);fill-opacity:0.235294;" d="M 11.90625 19.101562 L 11.90625 19.433594 L 19.84375 19.433594 L 19.84375 19.101562 Z M 11.90625 19.101562 "/>
<path style=" stroke:none;fill-rule:nonzero;fill:rgb(0%,0%,0%);fill-opacity:0.235294;" d="M 11.90625 27.042969 L 11.90625 27.371094 L 19.84375 27.371094 L 19.84375 27.042969 Z M 11.90625 27.042969 "/>
<path style=" stroke:none;fill-rule:nonzero;fill:rgb(0%,0%,0%);fill-opacity:0.235294;" d="M 11.90625 11.164062 L 11.90625 11.496094 L 19.84375 11.496094 L 19.84375 11.164062 Z M 11.90625 11.164062 "/>
<path style=" stroke:none;fill-rule:nonzero;fill:rgb(12.941177%,12.941177%,12.941177%);fill-opacity:1;" d="M 5.292969 3.464844 C 4.507812 3.464844 3.875 4.097656 3.875 4.878906 L 3.875 26.050781 C 3.875 26.832031 4.507812 27.464844 5.292969 27.464844 L 26.460938 27.464844 C 27.246094 27.464844 27.878906 26.832031 27.878906 26.050781 L 27.878906 4.878906 C 27.878906 4.097656 27.246094 3.464844 26.460938 3.464844 Z M 12 3.652344 L 19.75 3.652344 L 19.75 11.402344 L 12 11.402344 Z M 5.292969 3.652344 L 11.8125 3.652344 L 11.8125 11.402344 L 4.0625 11.402344 L 4.0625 4.878906 C 4.0625 4.199219 4.609375 3.652344 5.292969 3.652344 Z M 19.9375 3.652344 L 26.460938 3.652344 C 27.144531 3.652344 27.691406 4.199219 27.691406 4.878906 L 27.691406 11.402344 L 19.9375 11.402344 Z M 12 11.589844 L 19.75 11.589844 L 19.75 19.339844 L 12 19.339844 Z M 4.0625 11.589844 L 11.8125 11.589844 L 11.8125 19.339844 L 4.0625 19.339844 Z M 19.9375 11.589844 L 27.691406 11.589844 L 27.691406 19.339844 L 19.9375 19.339844 Z M 12 19.527344 L 19.75 19.527344 L 19.75 27.277344 L 12 27.277344 Z M 19.9375 19.527344 L 27.691406 19.527344 L 27.691406 26.050781 C 27.691406 26.730469 27.144531 27.277344 26.460938 27.277344 L 19.9375 27.277344 Z M 4.0625 19.527344 L 11.8125 19.527344 L 11.8125 27.277344 L 5.292969 27.277344 C 4.609375 27.277344 4.0625 26.730469 4.0625 26.050781 Z M 4.0625 19.527344 "/>
</g>
</svg>
